X:1
T:G minor Oliver Holden, 1803
T:William Cowper, 1779 88. 88. (L. M.)
T:Cowper No copyright. Transcribed from The Charlestown Collection, 1803.
%%score [ 1 2 3 4 ]
L:1/8
M:4/4
K:Bb
V:1 treble nm="Treble" snm="Tr."
V:2 treble nm="Counter" snm="C."
V:3 treble-8 nm="Tenor" snm="T."
V:4 bass nm="Bass" snm="B."
V:1
 d4 | d2 d2 B2 B2 | B2 A2 B3 c | d2 e2 e2 d2 | d2 d2 d2 z2 | z8 | z4 z2 d2 | f2 d2 B2 B2 | %8
w: ||||||It|means Thy praise, how-|
 (d2 c2 B2) c2 | d6 d2 | f2 d2 g2 d2 | B2 A2 G2 G2 | d2 B2 d2 g2 | f2 f2 B2 B2 | f3 f f2 d2 | %15
w: ev- * * er|poor, An|an- gel's song can|do no more, *||||
 d4 d4 | d8 |] %17
w: ||
V:2
 D4 | G2 G2 F2 F2 | E2 D2 D3 E | D2 G2 G2 G2 | ^F2 F2 G2 z2 | z8 | z8 | z4 z2 D2 | F2 F2 F2 F2 | %9
w: 1.~For-|give the song that|falls so low Be-|neath the gra- ti-|tude I owe;|||It|means Thy praise, how-|
 F2 F2 F2 z2 | z8 | z4 z2 D2 | D2 F2 D2 D2 | D2 D2 D2 D2 | C3 C F2 F2 | D4 ^F4 | G8 |] %17
w: ev- er poor,||It|means Thy praise, how-|ev- er poor, An|an- gel's song can|do no|more.|
V:3
 G4 | B2 B2 d2 d2 | G2 ^F2 G3 A | B2 G2 c2 B2 | A2 A2 G2 z2 | z4 z2 B2 | c2 B2 A2 G2 | %7
w: |||||It|means Thy praise, how-|
 d2 d2 d2 G2 | B2 c2 d2 c2 | B2 B2 B2 z2 | z8 | z4 z2 d2 | f2 d2 g2 d2 | B2 c2 d2 B2 | c3 c c2 d2 | %15
w: ev- er poor, It|means Thy praise, how-|ev- er poor,||||||
 B4 A4 | G8 |] %17
w: ||
V:4
 G,4 | G,2 G,2 B,2 B,2 | G,2 D,2 G,3 ^F, | G,2 G,2 G,2 G,2 | D,2 D,2 G,2 B,2 | C2 B,2 A,2 G,2 | %6
w: ||||* * * It|means Thy praise, how-|
 F,2 F,2 F,2 G,2 | D,4 D,4 | F,6 F,2 | B,,2 B,,2 B,,2 B,2 | B,2 B,2 G,2 G,2 | D,2 D,2 G,2 B,2 | %12
w: ev- er poor, It|means Thy|praise how-|ev- er poor, An|an- gel's song can|do no more, *|
 B,2 B,2 G,2 G,2 | B,2 A,2 G,2 D,2 | F,3 F, F,2 B,2 | D4 D,4 | G,8 |] %17
w: |||||

